assets/images/icons/read-book.svg

<?xml version="1.0" encoding="utf-8"?><svg version="1.1" id="Layer_1" xmlns="http://www.w3.org/2000/svg" xmlns:xlink="http://www.w3.org/1999/xlink" x="0px" y="0px" viewBox="0 0 122.88 101.37" style="enable-background:new 0 0 122.88 101.37" xml:space="preserve"><g><path d="M12.64,77.27l0.31-54.92h-6.2v69.88c8.52-2.2,17.07-3.6,25.68-3.66c7.95-0.05,15.9,1.06,23.87,3.76 c-4.95-4.01-10.47-6.96-16.36-8.88c-7.42-2.42-15.44-3.22-23.66-2.52c-1.86,0.15-3.48-1.23-3.64-3.08 C12.62,77.65,12.62,77.46,12.64,77.27L12.64,77.27z M103.62,19.48c-0.02-0.16-0.04-0.33-0.04-0.51c0-0.17,0.01-0.34,0.04-0.51V7.34 c-7.8-0.74-15.84,0.12-22.86,2.78c-6.56,2.49-12.22,6.58-15.9,12.44V85.9c5.72-3.82,11.57-6.96,17.58-9.1 c6.85-2.44,13.89-3.6,21.18-3.02V19.48L103.62,19.48z M110.37,15.6h9.14c1.86,0,3.37,1.51,3.37,3.37v77.66 c0,1.86-1.51,3.37-3.37,3.37c-0.38,0-0.75-0.06-1.09-0.18c-9.4-2.69-18.74-4.48-27.99-4.54c-9.02-0.06-18.03,1.53-27.08,5.52 c-0.56,0.37-1.23,0.57-1.92,0.56c-0.68,0.01-1.35-0.19-1.92-0.56c-9.04-4-18.06-5.58-27.08-5.52c-9.25,0.06-18.58,1.85-27.99,4.54 c-0.34,0.12-0.71,0.18-1.09,0.18C1.51,100.01,0,98.5,0,96.64V18.97c0-1.86,1.51-3.37,3.37-3.37h9.61l0.06-11.26 c0.01-1.62,1.15-2.96,2.68-3.28l0,0c8.87-1.85,19.65-1.39,29.1,2.23c6.53,2.5,12.46,6.49,16.79,12.25 c4.37-5.37,10.21-9.23,16.78-11.72c8.98-3.41,19.34-4.23,29.09-2.8c1.68,0.24,2.88,1.69,2.88,3.33h0V15.6L110.37,15.6z M68.13,91.82c7.45-2.34,14.89-3.3,22.33-3.26c8.61,0.05,17.16,1.46,25.68,3.66V22.35h-5.77v55.22c0,1.86-1.51,3.37-3.37,3.37 c-0.27,0-0.53-0.03-0.78-0.09c-7.38-1.16-14.53-0.2-21.51,2.29C79.09,85.15,73.57,88.15,68.13,91.82L68.13,91.82z M58.12,85.25 V22.46c-3.53-6.23-9.24-10.4-15.69-12.87c-7.31-2.8-15.52-3.43-22.68-2.41l-0.38,66.81c7.81-0.28,15.45,0.71,22.64,3.06 C47.73,78.91,53.15,81.64,58.12,85.25L58.12,85.25z"/></g></svg>

<?xml version="1.0" encoding="UTF-8" standalone="no"?>
<svg
   xmlns:dc="http://purl.org/dc/elements/1.1/"
   xmlns:cc="http://creativecommons.org/ns#"
   xmlns:rdf="http://www.w3.org/1999/02/22-rdf-syntax-ns#"
   xmlns:svg="http://www.w3.org/2000/svg"
   xmlns="http://www.w3.org/2000/svg"
   xmlns:sodipodi="http://sodipodi.sourceforge.net/DTD/sodipodi-0.dtd"
   xmlns:inkscape="http://www.inkscape.org/namespaces/inkscape"
   version="1.1"
   id="Layer_1"
   x="0px"
   y="0px"
   viewBox="0 0 122.88 122.87999"
   xml:space="preserve"
   sodipodi:docname="read-book.svg"
   width="122.88"
   height="122.88"
   inkscape:version="1.0.1 (3bc2e813f5, 2020-09-07)"><metadata
     id="metadata11"><rdf:RDF><cc:Work
         rdf:about=""><dc:format>image/svg+xml</dc:format><dc:type
           rdf:resource="http://purl.org/dc/dcmitype/StillImage" /><dc:title></dc:title></cc:Work></rdf:RDF></metadata><defs
     id="defs9" /><sodipodi:namedview
     pagecolor="#ffffff"
     bordercolor="#666666"
     borderopacity="1"
     objecttolerance="10"
     gridtolerance="10"
     guidetolerance="10"
     inkscape:pageopacity="0"
     inkscape:pageshadow="2"
     inkscape:window-width="1414"
     inkscape:window-height="829"
     id="namedview7"
     showgrid="false"
     inkscape:zoom="8.3851236"
     inkscape:cx="61.439999"
     inkscape:cy="50.685001"
     inkscape:window-x="0"
     inkscape:window-y="0"
     inkscape:window-maximized="0"
     inkscape:current-layer="Layer_1" /><g
     id="g4"
     transform="translate(0,10.760768)"><path
       d="m 12.64,77.27 0.31,-54.92 h -6.2 v 69.88 c 8.52,-2.2 17.07,-3.6 25.68,-3.66 7.95,-0.05 15.9,1.06 23.87,3.76 C 51.35,88.32 45.83,85.37 39.94,83.45 32.52,81.03 24.5,80.23 16.28,80.93 14.42,81.08 12.8,79.7 12.64,77.85 c -0.02,-0.2 -0.02,-0.39 0,-0.58 z m 90.98,-57.79 c -0.02,-0.16 -0.04,-0.33 -0.04,-0.51 0,-0.17 0.01,-0.34 0.04,-0.51 V 7.34 C 95.82,6.6 87.78,7.46 80.76,10.12 74.2,12.61 68.54,16.7 64.86,22.56 V 85.9 c 5.72,-3.82 11.57,-6.96 17.58,-9.1 6.85,-2.44 13.89,-3.6 21.18,-3.02 z m 6.75,-3.88 h 9.14 c 1.86,0 3.37,1.51 3.37,3.37 v 77.66 c 0,1.86 -1.51,3.37 -3.37,3.37 -0.38,0 -0.75,-0.06 -1.09,-0.18 -9.4,-2.69 -18.74,-4.48 -27.99,-4.54 -9.02,-0.06 -18.03,1.53 -27.08,5.52 -0.56,0.37 -1.23,0.57 -1.92,0.56 -0.68,0.01 -1.35,-0.19 -1.92,-0.56 C 50.47,96.8 41.45,95.22 32.43,95.28 23.18,95.34 13.85,97.13 4.44,99.82 4.1,99.94 3.73,100 3.35,100 1.51,100.01 0,98.5 0,96.64 V 18.97 C 0,17.11 1.51,15.6 3.37,15.6 h 9.61 L 13.04,4.34 c 0.01,-1.62 1.15,-2.96 2.68,-3.28 v 0 c 8.87,-1.85 19.65,-1.39 29.1,2.23 6.53,2.5 12.46,6.49 16.79,12.25 4.37,-5.37 10.21,-9.23 16.78,-11.72 8.98,-3.41 19.34,-4.23 29.09,-2.8 1.68,0.24 2.88,1.69 2.88,3.33 v 0 11.25 z M 68.13,91.82 c 7.45,-2.34 14.89,-3.3 22.33,-3.26 8.61,0.05 17.16,1.46 25.68,3.66 V 22.35 h -5.77 v 55.22 c 0,1.86 -1.51,3.37 -3.37,3.37 -0.27,0 -0.53,-0.03 -0.78,-0.09 -7.38,-1.16 -14.53,-0.2 -21.51,2.29 -5.62,2.01 -11.14,5.01 -16.58,8.68 z M 58.12,85.25 V 22.46 C 54.59,16.23 48.88,12.06 42.43,9.59 35.12,6.79 26.91,6.16 19.75,7.18 l -0.38,66.81 c 7.81,-0.28 15.45,0.71 22.64,3.06 5.72,1.86 11.14,4.59 16.11,8.2 z"
       id="path2" /></g></svg>
